svg/Pictogram/pictograms-aem-0045-do_not_start_except_from_seat.svg

<?xml version="1.0" encoding="UTF-8" standalone="no"?>
<svg height="304" id="svg2" inkscape:output_extension="org.inkscape.output.svg.inkscape" inkscape:version="0.46" sodipodi:docname="pictograms-aem-0045-do_not_start_except_from_seat-2.svg" sodipodi:version="0.32" version="1.0" width="304" xmlns="http://www.w3.org/2000/svg" xmlns:cc="http://creativecommons.org/ns#" xmlns:dc="http://purl.org/dc/elements/1.1/" xmlns:inkscape="http://www.inkscape.org/namespaces/inkscape" xmlns:rdf="http://www.w3.org/1999/02/22-rdf-syntax-ns#" xmlns:sodipodi="http://sodipodi.sourceforge.net/DTD/sodipodi-0.dtd" xmlns:svg="http://www.w3.org/2000/svg">
  <metadata>
    <rdf:RDF xmlns:cc="http://web.resource.org/cc/" xmlns:dc="http://purl.org/dc/elements/1.1/" xmlns:rdf="http://www.w3.org/1999/02/22-rdf-syntax-ns#">
      <cc:Work rdf:about="">
        <dc:title></dc:title>
        <dc:description></dc:description>
        <dc:subject>
          <rdf:Bag>
            <rdf:li></rdf:li>
          </rdf:Bag>
        </dc:subject>
        <dc:publisher>
          <cc:Agent rdf:about="http://www.unece.org/trans/danger/publi/ghs/pictograms.html">
            <dc:title>Source: UNECE GHS of Classification and Labeling of Chemicals, Source: AEM Pictorial Database, Source: AEM Pictorial Database, Source: AEM Pictorial Database, Source: AEM Pictorial Database</dc:title>
          </cc:Agent>
        </dc:publisher>
        <dc:creator>
          <cc:Agent>
            <dc:title></dc:title>
          </cc:Agent>
        </dc:creator>
        <dc:rights>
          <cc:Agent>
            <dc:title></dc:title>
          </cc:Agent>
        </dc:rights>
        <dc:date></dc:date>
        <dc:format>image/svg+xml</dc:format>
        <dc:type rdf:resource="http://purl.org/dc/dcmitype/StillImage"/>
        <cc:license rdf:resource="http://en.wikipedia.org/wiki/Public_domain"/>
        <dc:language>en</dc:language>
      </cc:Work>
    </rdf:RDF>
  </metadata>
  <sodipodi:namedview bordercolor="#666666" borderopacity="1.0" gridtolerance="10.0" guidetolerance="10.0" id="base" inkscape:current-layer="svg2" inkscape:cx="74.827417" inkscape:cy="88.615997" inkscape:pageopacity="0.0" inkscape:pageshadow="2" inkscape:window-height="674" inkscape:window-width="640" inkscape:window-x="541" inkscape:window-y="132" inkscape:zoom="0.65450936" objecttolerance="10.0" pagecolor="#ffffff" showgrid="false"/>
  <defs id="defs6">
    <inkscape:perspective id="perspective44" inkscape:persp3d-origin="101.565 : 59.077332 : 1" inkscape:vp_x="0 : 88.615997 : 1" inkscape:vp_y="0 : 1000 : 0" inkscape:vp_z="203.13 : 88.615997 : 1" sodipodi:type="inkscape:persp3d"/>
    <marker id="ArrowEnd" markerHeight="3" markerUnits="strokeWidth" markerWidth="4" orient="auto" refX="0" refY="5" viewBox="0 0 10 10">
      <path d="M 0,0 L 10,5 L 0,10 L 0,0 z" id="path9"/>
    </marker>
    <marker id="ArrowStart" markerHeight="3" markerUnits="strokeWidth" markerWidth="4" orient="auto" refX="10" refY="5" viewBox="0 0 10 10">
      <path d="M 10,0 L 0,5 L 10,10 L 10,0 z" id="path12"/>
    </marker>
  </defs>
  <g id="g2958" transform="matrix(1.4284926,0,0,1.5687953,7.9066468,11.977351)">
    <path d="M 89.6055,48.9977 L 97.25,48.6537 L 83.4609,33.2007 L 89.3867,44.9897 L 81.9062,45.3257 L 81.5391,45.3407 L 95.3281,60.7937 L 89.4023,49.0017 L 89.6055,48.9977" id="path15" style="fill:#000000;fill-rule:evenodd;stroke:none"/>
    <path d="M 152.508,28.8407 C 151.008,26.0557 152.254,23.2517 152.254,23.2517 L 188.895,0.200653 C 194.305,-0.772339 198.469,1.89166 200.902,6.05966 L 148.988,38.5087 L 142.863,28.7357 C 142.863,28.7357 146.414,27.1767 148.535,30.8997 C 150.141,33.7197 154.008,31.6297 152.508,28.8407 z M 184.363,9.79066 C 180.281,12.3297 164.254,22.9037 160.73,25.2007 C 157.203,27.4977 157.742,29.4777 161.266,27.1807 C 164.688,24.9507 179.566,15.0047 184.488,12.0407 C 189.254,9.17265 188.445,7.25166 184.363,9.79066" id="path17" style="fill:#000000;fill-rule:evenodd;stroke:none"/>
    <path d="M 151.621,33.8097 L 107.238,60.0437 L 110.312,64.3177 L 154.273,38.3407 L 151.621,33.8097" id="path19" style="fill:#000000;fill-rule:evenodd;stroke:none"/>
    <path d="M 113.508,59.0597 L 107.566,57.5717 L 97.9141,67.2237 L 98.9023,69.7007 L 113.504,59.0597" id="path21" style="fill:#000000;fill-rule:evenodd;stroke:none"/>
    <path d="M 113.508,59.0597 L 113.102,65.1657 L 100.957,71.3997 L 98.9023,69.7007 L 113.508,59.0597" id="path23" style="fill:#000000;fill-rule:evenodd;stroke:none"/>
    <path d="M 155.633,42.2517 C 158.051,45.7907 155.094,48.2977 155.094,48.2977 L 148.988,38.5087 L 200.902,6.05966 C 203.582,10.0757 204.148,14.9857 200.91,19.4197 L 164.137,42.2587 C 164.137,42.2587 161.07,42.1537 159.223,39.5837 C 157.375,37.0127 153.801,39.5717 155.633,42.2517 z M 189.066,16.7197 C 184.984,19.2587 168.957,29.8337 165.434,32.1297 C 161.906,34.4267 162.445,36.4077 165.969,34.1107 C 169.391,31.8797 184.27,21.9307 189.191,18.9737 C 193.957,16.1027 193.148,14.1807 189.066,16.7197" id="path25" style="fill:#000000;fill-rule:evenodd;stroke:none"/>
    <path d="M 96.2539,37.3487 L 166.738,54.9547 L 165.285,60.6887 L 94.8008,43.0837 L 96.2539,37.3447" id="path27" style="fill:#ff3e3e;fill-rule:evenodd;stroke:none"/>
    <path d="M 136.699,13.0557 L 119.086,83.5559 L 124.832,84.9739 L 142.441,14.4697 L 136.699,13.0557" id="path29" style="fill:#ff3e3e;fill-rule:evenodd;stroke:none"/>
    <path d="M 138.004,91.8684 L 145.449,90.1067 L 129.023,77.4895 L 137.043,87.9739 L 129.758,89.6965 L 129.398,89.7747 L 145.82,102.396 L 137.805,91.9114 L 138.004,91.8684" id="path31" style="fill:#000000;fill-rule:evenodd;stroke:none"/>
    <path d="M 115.496,171.001 C 126.734,166.638 135.043,149.337 135.043,128.665 C 135.043,108.095 126.648,90.8645 115.496,86.3919 L 115.496,171.005" id="path33" style="fill:#000000;fill-rule:evenodd;stroke:none"/>
    <path d="M 56.1914,92.7317 L 70.1914,92.7317 L 70.1914,50.8997 L 56.1914,50.8997 L 56.1914,92.7317 z" id="path35" style="fill:#000000;fill-rule:evenodd;stroke:none"/>
    <path d="M 86.8633,55.8407 L 78.3984,55.8407 L 78.3984,53.7237 L 74.1641,53.7237 L 74.1641,70.1847 L 78.3984,70.1847 L 78.3984,67.5947 L 86.8633,67.5947 L 86.8633,55.8407" id="path37" style="fill:#000000;fill-rule:evenodd;stroke:none"/>
    <path d="M 86.8633,74.8407 L 78.3984,74.8407 L 78.3984,72.7237 L 74.1641,72.7237 L 74.1641,89.1848 L 78.3984,89.1848 L 78.3984,86.595 L 86.8633,86.595 L 86.8633,74.8407" id="path39" style="fill:#000000;fill-rule:evenodd;stroke:none"/>
    <path d="M 52.332,53.6417 L 52.332,88.8958 L 24.0234,88.8958 L 24.0234,93.5637 L 52.332,93.5637 L 52.332,96.2317 L 74.0039,96.2317 L 74.0039,92.759 L 81.6523,92.759 L 81.6523,90.0012 L 90.8789,90.0012 L 90.8789,80.8958 L 112.188,80.8958 L 112.188,177.232 L 0,177.232 L 0,53.6417 L 52.332,53.6417 z M 98.7266,100.927 L 93.75,113.15 L 106.273,96.6536 L 105.906,96.6692 L 98.4219,96.9231 L 103.398,84.7005 L 90.875,101.2 L 98.5195,100.935 L 98.7266,100.927" id="path41" style="fill:#000000;fill-rule:evenodd;stroke:none"/>
  </g>
</svg>

<svg xmlns="http://www.w3.org/2000/svg" viewBox="0 0 304 304"><g transform="matrix(1.42849 0 0 1.5688 7.907 11.977)" fill-rule="evenodd"><path d="m89.61 48.998l7.644-.344-13.789-15.453 5.926 11.789-7.481.336-.367.015 13.789 15.453-5.926-11.792.203-.004"/><path d="m152.51 28.841c-1.5-2.785-.254-5.589-.254-5.589l36.641-23.05c5.41-.973 9.574 1.691 12.01 5.859l-51.914 32.449-6.125-9.773c0 0 3.551-1.559 5.672 2.164 1.606 2.82 5.473.73 3.973-2.059m31.855-19.05c-4.082 2.539-20.11 13.11-23.633 15.41-3.527 2.297-2.988 4.277.536 1.98 3.422-2.23 18.3-12.176 23.22-15.14 4.766-2.868 3.957-4.789-.125-2.25"/><path d="m151.62 33.81l-44.38 26.23 3.074 4.274 43.961-25.977-2.652-4.531"/><path d="m113.51 59.06l-5.942-1.488-9.652 9.652.988 2.477 14.602-10.641"/><path d="m113.51 59.06l-.406 6.106-12.145 6.234-2.055-1.699 14.606-10.641"/><path d="m155.63 42.25c2.418 3.539-.539 6.05-.539 6.05l-6.106-9.789 51.914-32.449c2.68 4.02 3.246 8.926.008 13.36l-36.773 22.839c0 0-3.067-.105-4.914-2.675-1.848-2.571-5.422-.012-3.59 2.668m33.433-25.532c-4.082 2.539-20.11 13.11-23.632 15.41-3.528 2.297-2.989 4.278.535 1.981 3.422-2.231 18.301-12.18 23.22-15.14 4.766-2.871 3.957-4.793-.125-2.254"/><g fill="#ff3e3e"><path d="m96.25 37.35l70.48 17.606-1.453 5.734-70.48-17.605 1.453-5.739"/><path d="m136.7 13.06l-17.613 70.5 5.746 1.418 17.609-70.5-5.742-1.414"/></g><path d="m138 91.87l7.445-1.762-16.426-12.617 8.02 10.484-7.285 1.723-.36.078 16.422 12.621-8.01-10.485.199-.043"/><path d="m115.5 171c11.238-4.363 19.547-21.664 19.547-42.34 0-20.57-8.395-37.8-19.547-42.27v84.61"/><path d="m56.19 92.73h14v-41.832h-14v41.832"/><path d="m86.86 55.841h-8.465v-2.117h-4.234v16.461h4.234v-2.59h8.465v-11.754"/><path d="m86.86 74.841h-8.465v-2.117h-4.234v16.461h4.234v-2.59h8.465v-11.754"/><path d="m52.33 53.642v35.25h-28.309v4.668h28.309v2.668h21.672v-3.473h7.648v-2.758h9.227v-9.105h21.309v96.34h-112.19v-123.59h52.33m46.39 47.29l-4.977 12.223 12.523-16.496-.367.016-7.484.254 4.976-12.223-12.523 16.499 7.644-.265.207-.008"/></g></svg>
